svg/single-neutral-actions-setting.svg

<svg xmlns="http://www.w3.org/2000/svg" xmlns:xlink="http://www.w3.org/1999/xlink" width="24pt" height="24pt" viewBox="0 0 24 24" version="1.1">
<g id="surface1">
<path style=" stroke:none;fill-rule:nonzero;fill:rgb(0%,0%,0%);fill-opacity:1;" d="M 17.75 18.96875 C 16.683594 18.96875 15.8125 18.097656 15.8125 17.03125 C 15.8125 15.964844 16.683594 15.09375 17.75 15.09375 C 18.816406 15.09375 19.6875 15.964844 19.6875 17.03125 C 19.6875 18.097656 18.816406 18.96875 17.75 18.96875 Z M 17.75 16.09375 C 17.234375 16.09375 16.8125 16.515625 16.8125 17.03125 C 16.8125 17.546875 17.234375 17.96875 17.75 17.96875 C 18.265625 17.96875 18.6875 17.546875 18.6875 17.03125 C 18.6875 16.515625 18.265625 16.09375 17.75 16.09375 Z M 17.75 16.09375 "/>
<path style=" stroke:none;fill-rule:nonzero;fill:rgb(0%,0%,0%);fill-opacity:1;" d="M 17.753906 24 C 17.582031 24 17.410156 23.976562 17.242188 23.925781 C 16.671875 23.753906 16.226562 23.308594 16.054688 22.734375 L 15.628906 21.347656 C 15.570312 21.15625 15.390625 21.023438 15.191406 21.023438 C 15.15625 21.023438 15.125 21.027344 15.09375 21.035156 L 13.683594 21.359375 C 13.550781 21.390625 13.417969 21.40625 13.285156 21.40625 C 12.460938 21.40625 11.730469 20.820312 11.546875 20.015625 C 11.417969 19.441406 11.582031 18.839844 11.980469 18.40625 L 12.96875 17.34375 C 13.128906 17.171875 13.128906 16.898438 12.96875 16.722656 L 11.980469 15.660156 C 11.65625 15.3125 11.488281 14.859375 11.507812 14.382812 C 11.523438 13.90625 11.722656 13.464844 12.070312 13.140625 C 12.402344 12.832031 12.835938 12.660156 13.285156 12.660156 C 13.417969 12.660156 13.550781 12.675781 13.679688 12.703125 L 15.09375 13.03125 C 15.128906 13.039062 15.160156 13.046875 15.195312 13.046875 C 15.390625 13.046875 15.570312 12.914062 15.625 12.722656 L 16.050781 11.328125 C 16.1875 10.878906 16.488281 10.503906 16.90625 10.277344 C 17.167969 10.136719 17.457031 10.0625 17.75 10.0625 C 17.921875 10.0625 18.09375 10.089844 18.257812 10.140625 C 18.832031 10.308594 19.277344 10.753906 19.449219 11.324219 L 19.875 12.714844 C 19.929688 12.90625 20.109375 13.039062 20.308594 13.039062 C 20.339844 13.039062 20.375 13.035156 20.40625 13.027344 L 21.816406 12.699219 C 21.949219 12.671875 22.078125 12.65625 22.210938 12.65625 C 23.039062 12.65625 23.769531 13.242188 23.953125 14.046875 C 24.082031 14.621094 23.921875 15.222656 23.519531 15.65625 L 22.53125 16.71875 C 22.371094 16.890625 22.371094 17.164062 22.53125 17.339844 L 23.519531 18.402344 C 23.84375 18.753906 24.011719 19.207031 23.996094 19.683594 C 23.976562 20.15625 23.777344 20.597656 23.429688 20.921875 C 23.097656 21.230469 22.664062 21.402344 22.214844 21.402344 C 22.082031 21.402344 21.949219 21.386719 21.820312 21.359375 L 20.40625 21.027344 C 20.378906 21.023438 20.347656 21.019531 20.3125 21.019531 C 20.113281 21.019531 19.9375 21.152344 19.878906 21.34375 L 19.453125 22.738281 C 19.230469 23.480469 18.53125 24 17.753906 24 Z M 15.191406 20.023438 C 15.828125 20.023438 16.398438 20.445312 16.585938 21.054688 L 17.011719 22.445312 C 17.089844 22.695312 17.28125 22.890625 17.53125 22.964844 C 17.605469 22.988281 17.679688 23 17.757812 23 C 18.09375 23 18.398438 22.773438 18.496094 22.449219 L 18.921875 21.054688 C 19.105469 20.445312 19.675781 20.019531 20.316406 20.019531 C 20.421875 20.019531 20.523438 20.03125 20.628906 20.054688 L 22.046875 20.382812 C 22.097656 20.394531 22.15625 20.402344 22.214844 20.402344 C 22.410156 20.402344 22.601562 20.324219 22.746094 20.191406 C 22.898438 20.046875 22.988281 19.855469 22.996094 19.644531 C 23.003906 19.4375 22.929688 19.238281 22.785156 19.085938 L 21.796875 18.019531 C 21.285156 17.464844 21.285156 16.59375 21.796875 16.039062 L 22.785156 14.972656 C 22.964844 14.78125 23.035156 14.519531 22.976562 14.265625 C 22.929688 14.0625 22.808594 13.886719 22.632812 13.777344 C 22.507812 13.695312 22.363281 13.65625 22.214844 13.65625 C 22.15625 13.65625 22.097656 13.660156 22.039062 13.675781 L 20.632812 14 C 20.523438 14.023438 20.414062 14.035156 20.308594 14.035156 C 19.671875 14.035156 19.097656 13.613281 18.914062 13.003906 L 18.492188 11.613281 C 18.414062 11.363281 18.222656 11.171875 17.972656 11.09375 C 17.898438 11.074219 17.824219 11.0625 17.746094 11.0625 C 17.621094 11.0625 17.496094 11.09375 17.382812 11.15625 C 17.199219 11.253906 17.066406 11.417969 17.007812 11.617188 L 16.582031 13.011719 C 16.398438 13.617188 15.828125 14.039062 15.191406 14.039062 C 15.082031 14.039062 14.972656 14.027344 14.867188 14.003906 L 13.453125 13.675781 C 13.398438 13.664062 13.34375 13.65625 13.285156 13.65625 C 13.085938 13.65625 12.898438 13.734375 12.753906 13.867188 C 12.4375 14.160156 12.417969 14.660156 12.710938 14.976562 L 13.699219 16.039062 C 14.210938 16.597656 14.210938 17.464844 13.703125 18.019531 L 12.714844 19.085938 C 12.535156 19.273438 12.464844 19.539062 12.519531 19.792969 C 12.601562 20.144531 12.921875 20.402344 13.285156 20.402344 C 13.34375 20.402344 13.398438 20.398438 13.457031 20.382812 L 14.863281 20.058594 C 14.972656 20.035156 15.082031 20.023438 15.191406 20.023438 Z M 15.191406 20.023438 "/>
<path style=" stroke:none;fill-rule:nonzero;fill:rgb(0%,0%,0%);fill-opacity:1;" d="M 7.5 9.5 C 4.882812 9.5 2.75 7.367188 2.75 4.75 C 2.75 2.132812 4.882812 0 7.5 0 C 10.117188 0 12.25 2.132812 12.25 4.75 C 12.25 7.367188 10.117188 9.5 7.5 9.5 Z M 7.5 1 C 5.433594 1 3.75 2.683594 3.75 4.75 C 3.75 6.816406 5.433594 8.5 7.5 8.5 C 9.566406 8.5 11.25 6.816406 11.25 4.75 C 11.25 2.683594 9.566406 1 7.5 1 Z M 7.5 1 "/>
<path style=" stroke:none;fill-rule:nonzero;fill:rgb(0%,0%,0%);fill-opacity:1;" d="M 0.5 18 C 0.222656 18 0 17.773438 0 17.5 C 0 15.496094 0.78125 13.613281 2.195312 12.195312 C 3.613281 10.78125 5.496094 10 7.5 10 C 8.941406 10 10.34375 10.410156 11.554688 11.1875 C 11.785156 11.339844 11.851562 11.648438 11.703125 11.878906 C 11.609375 12.023438 11.453125 12.109375 11.28125 12.109375 C 11.1875 12.109375 11.09375 12.082031 11.011719 12.03125 C 9.964844 11.355469 8.746094 11 7.5 11 C 5.765625 11 4.132812 11.675781 2.902344 12.902344 C 1.800781 14.007812 1.136719 15.453125 1.019531 17 L 9.5 17 C 9.777344 17 10 17.222656 10 17.5 C 10 17.777344 9.777344 18 9.5 18 Z M 0.5 18 "/>
</g>
</svg>

<svg xmlns="http://www.w3.org/2000/svg" xmlns:xlink="http://www.w3.org/1999/xlink" width="24px" height="24px" viewBox="0 0 24 24" version="1.1"><g fill="currentColor"><path d="M17.75 18.969a1.942 1.942 0 01-1.938-1.938c0-1.066.872-1.937 1.938-1.937 1.066 0 1.938.87 1.938 1.937a1.942 1.942 0 01-1.938 1.938zm0-2.875a.94.94 0 00-.938.937.94.94 0 00.938.938.94.94 0 00.938-.938.94.94 0 00-.938-.937zm0 0"/><path d="M17.754 24a1.763 1.763 0 01-1.7-1.266l-.425-1.386a.46.46 0 00-.535-.313l-1.41.324a1.734 1.734 0 01-.399.047 1.799 1.799 0 01-1.738-1.39 1.8 1.8 0 01.433-1.61l.989-1.062a.461.461 0 000-.621l-.989-1.063a1.753 1.753 0 01-.472-1.277c.015-.477.215-.918.562-1.242a1.785 1.785 0 011.61-.438l1.414.328c.035.008.066.016.101.016a.451.451 0 00.43-.324l.426-1.395a1.773 1.773 0 013.398-.004l.426 1.39a.452.452 0 00.531.313l1.41-.328a1.8 1.8 0 012.137 1.348 1.788 1.788 0 01-.433 1.61l-.989 1.062a.461.461 0 000 .62l.989 1.063a1.784 1.784 0 01-1.305 3c-.133 0-.266-.015-.395-.043l-1.414-.332a.456.456 0 00-.527.316l-.426 1.395a1.785 1.785 0 01-1.7 1.262zm-2.563-3.977c.637 0 1.207.422 1.395 1.032l.426 1.39a.778.778 0 00.746.555c.336 0 .64-.227.738-.55l.426-1.395a1.463 1.463 0 011.707-1l1.418.328a.762.762 0 00.7-.192.788.788 0 00.25-.546.765.765 0 00-.212-.56l-.988-1.065a1.47 1.47 0 010-1.98l.988-1.067a.772.772 0 00.192-.707.776.776 0 00-.762-.61.674.674 0 00-.176.02L20.633 14a1.463 1.463 0 01-1.719-.996l-.422-1.39a.786.786 0 00-.52-.52.88.88 0 00-.226-.031.751.751 0 00-.363.093.761.761 0 00-.375.461l-.426 1.395a1.46 1.46 0 01-1.715.992l-1.414-.328a.785.785 0 00-.7.191.788.788 0 00-.042 1.11l.988 1.062c.512.559.512 1.426.004 1.98l-.988 1.067a.782.782 0 00-.195.707.793.793 0 00.937.59l1.406-.324c.11-.024.219-.036.328-.036zm0 0"/><path d="M7.5 9.5a4.758 4.758 0 01-4.75-4.75A4.758 4.758 0 017.5 0a4.758 4.758 0 014.75 4.75A4.758 4.758 0 017.5 9.5zm0-8.5a3.756 3.756 0 00-3.75 3.75A3.756 3.756 0 007.5 8.5a3.756 3.756 0 003.75-3.75A3.756 3.756 0 007.5 1zm0 0"/><path d="M.5 18a.501.501 0 01-.5-.5c0-2.004.781-3.887 2.195-5.305A7.465 7.465 0 017.5 10a7.49 7.49 0 014.055 1.188.503.503 0 01-.274.921.514.514 0 01-.27-.078A6.47 6.47 0 007.5 11a6.472 6.472 0 00-4.598 1.902A6.486 6.486 0 001.02 17H9.5c.277 0 .5.223.5.5s-.223.5-.5.5zm0 0"/></g></svg>
